X:216
T:Repeal of the Union
R:reel
Z:transcribed by Dave Marshall
M:C|
K:Dmix
|: A2FD ADFD | GEcE dEBE | A2FD ADFD | GEcG EDD2 |
A2FD ADFD | GEcE dEBc | dcBc ADED | ~E2cE EDD2 :|
|: ~d3g fded | ABcA dAcB | Ad^cd fd=cA | GEcG EDD2 |
~d3g fded | ABcd e~g3 | agge ~d3B |1 ~c3d cAGA :|2 ~c3d cAGB |
